24x24/places/folder-yellow-mail.svg

<svg xmlns="http://www.w3.org/2000/svg" width="24" height="24" version="1"><rect style="opacity:.2" width="20" height="12" x="2" y="9.5" rx="1" ry="1"/><path style="fill:#b58f1b" d="M2 17c0 .554.446 1 1 1h18c.554 0 1-.446 1-1V6c0-.554-.446-1-1-1h-9c-1.5 0-2-2-3.5-2H3c-.554 0-1 .446-1 1"/><rect style="opacity:.2" width="20" height="12" x="2" y="8.5" rx="1" ry="1"/><rect style="fill:#f4f4f7" width="16" height="8" x="4" y="7" rx="1" ry="1"/><rect style="fill:#e2b322" width="20" height="12" x="2" y="9" rx="1" ry="1"/><path style="opacity:.1;fill:#f4f4f7" d="M3 3c-.554 0-1 .446-1 1v.5c0-.554.446-1 1-1h5.5c1.5 0 2 2 3.5 2h9c.554 0 1 .446 1 1V6c0-.554-.446-1-1-1h-9c-1.5 0-2-2-3.5-2z"/><path style="fill:#4f3e0c" d="M12.5 11a3.5 3.5 0 1 0 0 7h2.188s.41 0 .437-.438c0-.437-.437-.437-.437-.437H12.5a2.625 2.625 0 1 1 2.625-2.625v.438a.437.437 0 0 1-.875 0V14.5a1.75 1.75 0 1 0-1.75 1.75c.458 0 .871-.181 1.183-.468A1.312 1.312 0 0 0 16 14.937V14.5a3.5 3.5 0 0 0-3.5-3.5zm0 2.625a.875.875 0 1 1 0 1.75.875.875 0 0 1 0-1.75z"/></svg>

<svg xmlns="http://www.w3.org/2000/svg" width="24" height="24" version="1">
 <rect style="opacity:0.2" width="20" height="12" x="2" y="9.5" rx="1" ry="1"/>
 <path style="fill:#b58f1b" d="M 2,17 C 2,17.554 2.446,18 3,18 H 21 C 21.554,18 22,17.554 22,17 V 6 C 22,5.446 21.554,5 21,5 H 12 C 10.5,5 10,3 8.5,3 H 3 C 2.446,3 2,3.446 2,4"/>
 <rect style="opacity:0.2" width="20" height="12" x="2" y="8.5" rx="1" ry="1"/>
 <rect style="fill:#f4f4f7" width="16" height="8" x="4" y="7" rx="1" ry="1"/>
 <rect style="fill:#e2b322" width="20" height="12" x="2" y="9" rx="1" ry="1"/>
 <path style="opacity:0.1;fill:#f4f4f7" d="M 3,3 C 2.446,3 2,3.446 2,4 V 4.5 C 2,3.946 2.446,3.5 3,3.5 H 8.5 C 10,3.5 10.5,5.5 12,5.5 H 21 C 21.554,5.5 22,5.946 22,6.5 V 6 C 22,5.446 21.554,5 21,5 H 12 C 10.5,5 10,3 8.5,3 Z"/>
 <path style="fill:#4f3e0c" d="M 12.5,11 C 10.567,11 9,12.567 9,14.5 9,16.433 10.567,18 12.5,18 H 14.688 C 14.688,18 15.098,18 15.125,17.562 15.125,17.125 14.688,17.125 14.688,17.125 H 12.5 C 11.05,17.125 9.875,15.95 9.875,14.5 9.875,13.05 11.05,11.875 12.5,11.875 13.95,11.875 15.125,13.05 15.125,14.5 V 14.938 C 15.125,15.179 14.929,15.375 14.688,15.375 14.446,15.375 14.25,15.179 14.25,14.938 V 14.5 C 14.25,13.534 13.467,12.75 12.5,12.75 11.534,12.75 10.75,13.534 10.75,14.5 10.75,15.467 11.534,16.25 12.5,16.25 12.958,16.25 13.371,16.069 13.683,15.782 13.932,16.078 14.3,16.25 14.688,16.25 15.413,16.25 16,15.662 16,14.937 V 14.5 C 16,12.567 14.433,11 12.5,11 Z M 12.5,13.625 C 12.983,13.625 13.375,14.017 13.375,14.5 13.375,14.983 12.983,15.375 12.5,15.375 12.017,15.375 11.625,14.983 11.625,14.5 11.625,14.017 12.017,13.625 12.5,13.625 Z"/>
</svg>
